src/assets/youtube.svg

<svg width="24" height="24" viewBox="0 0 24 24" fill="none" xmlns="http://www.w3.org/2000/svg">
<path d="M12.0765 2.99854H12.21C13.443 3.00304 19.6905 3.04804 21.375 3.50104C21.8842 3.63929 22.3483 3.90877 22.7207 4.28255C23.0932 4.65633 23.361 5.12131 23.4975 5.63104C23.649 6.20104 23.7555 6.95554 23.8275 7.73404L23.8425 7.89004L23.8755 8.28004L23.8875 8.43604C23.985 9.80704 23.997 11.091 23.9985 11.3715V11.484C23.997 11.775 23.9835 13.146 23.8755 14.574L23.8635 14.7315L23.85 14.8875C23.775 15.7455 23.664 16.5975 23.4975 17.2245C23.3615 17.7345 23.0938 18.1997 22.7212 18.5735C22.3487 18.9474 21.8844 19.2167 21.375 19.3545C19.635 19.8225 13.0215 19.8555 12.105 19.857H11.892C11.4285 19.857 9.5115 19.848 7.5015 19.779L7.2465 19.77L7.116 19.764L6.8595 19.7535L6.603 19.743C4.938 19.6695 3.3525 19.551 2.622 19.353C2.11273 19.2153 1.6486 18.9462 1.27609 18.5726C0.903575 18.1991 0.63577 17.7342 0.4995 17.2245C0.333 16.599 0.222 15.7455 0.147 14.8875L0.135 14.73L0.123 14.574C0.0489714 13.5576 0.0079498 12.5391 0 11.52L0 11.3355C0.003 11.013 0.015 9.89854 0.096 8.66854L0.1065 8.51404L0.111 8.43604L0.123 8.28004L0.156 7.89004L0.171 7.73404C0.243 6.95554 0.3495 6.19954 0.501 5.63104C0.63704 5.12111 0.904743 4.6559 1.27727 4.28206C1.6498 3.90822 2.11405 3.63887 2.6235 3.50104C3.354 3.30604 4.9395 3.18604 6.6045 3.11104L6.8595 3.10054L7.1175 3.09154L7.2465 3.08704L7.503 3.07654C8.93056 3.0306 10.3587 3.00509 11.787 3.00004H12.0765V2.99854ZM9.6 7.81354V15.0405L15.8355 11.4285L9.6 7.81354Z" fill="#F6F6F6"/>
</svg>

<svg xmlns="http://www.w3.org/2000/svg" width="24" height="24" fill="none" viewBox="0 0 24 24"><path fill="#f6f6f6" d="M12.077 2.999h.133c1.233.004 7.48.049 9.165.502a3.02 3.02 0 0 1 2.122 2.13c.152.57.259 1.325.33 2.103l.015.156.034.39.011.156c.098 1.371.11 2.655.111 2.935v.113a48 48 0 0 1-.123 3.09l-.012.158-.013.155c-.075.858-.186 1.71-.353 2.337a3.01 3.01 0 0 1-2.122 2.13c-1.74.469-8.353.502-9.27.503h-.213c-.463 0-2.38-.009-4.39-.078l-.255-.009-.131-.006-.256-.01-.257-.011c-1.665-.073-3.25-.192-3.981-.39A3.01 3.01 0 0 1 .5 17.224C.333 16.6.222 15.746.147 14.888l-.012-.157-.012-.156A47 47 0 0 1 0 11.52v-.184c.003-.323.015-1.437.096-2.667l.01-.155.005-.078.012-.156.033-.39.015-.156c.072-.778.178-1.534.33-2.103a3.01 3.01 0 0 1 2.123-2.13c.73-.195 2.315-.315 3.98-.39l.255-.01.258-.01.13-.004.256-.01A150 150 0 0 1 11.787 3h.29zM9.6 7.814v7.227l6.236-3.613z"/></svg>
